modules/coreui-icons-free/icons/share-boxed.svg

<!-- Generated by IcoMoon.io -->
<svg version="1.1" xmlns="http://www.w3.org/2000/svg" width="24" height="24" viewBox="0 0 24 24">
<title>share-boxed</title>
<path d="M21.75 11.625v10.125h-19.5v-19.5h10.125v-1.5h-11.625v22.5h22.5v-13.125l-1.5 1.5z"></path>
<path d="M4.974 8.022c-0.299 0.587-0.474 1.28-0.474 2.014 0 0.004 0 0.009 0 0.013v-0.001 10.134h2.24l1.93-6.917c0.383-1.328 1.586-2.284 3.013-2.287h2.567v4.023h1.809l7.126-7.083-7.124-7.167h-1.812v4.125h-4.398c-2.156 0.002-4.015 1.277-4.864 3.114l-0.014 0.033zM15.75 6.375v-3.811l5.314 5.347-5.314 5.282v-3.715h-4.067c-2.112 0.005-3.891 1.419-4.45 3.351l-0.008 0.033-1.225 4.391v-7.204c0-0.003-0-0.006-0-0.009 0-0.496 0.119-0.964 0.33-1.377l-0.008 0.017 0.014-0.029c0.619-1.352 1.96-2.274 3.516-2.276h0z"></path>
</svg>

<svg xmlns="http://www.w3.org/2000/svg" width="24" height="24" viewBox="0 0 24 24"><path d="M21.75 11.625V21.75H2.25V2.25h10.125V.75H.75v22.5h22.5V10.125l-1.5 1.5z"/><path d="M4.974 8.022a4.452 4.452 0 00-.474 2.014v.013-.001 10.134h2.24l1.93-6.917a3.144 3.144 0 013.013-2.287h2.567v4.023h1.809l7.126-7.083L16.061.751h-1.812v4.125H9.851A5.362 5.362 0 004.987 7.99l-.014.033zM15.75 6.375V2.564l5.314 5.347-5.314 5.282V9.478h-4.067a4.645 4.645 0 00-4.45 3.351l-.008.033L6 17.253v-7.204-.009c0-.496.119-.964.33-1.377l-.008.017.014-.029a3.868 3.868 0 013.516-2.276z"/></svg>
